static/assets/images/exchanges/coinstore.svg

<svg width="158" height="256" viewBox="0 0 158 256" fill="none" xmlns="http://www.w3.org/2000/svg">
<path d="M78.0694 0L0.576172 43.6758V135.691L78.0694 181.436L108.484 163.562L30.8443 116.217V62.2518L78.0694 36.5123L157.893 84.6912V49.5519L78.0694 0Z" fill="#FBFBFB"/>
<path d="M80.4333 256L157.926 212.324V120.309L80.4333 74.5637L50.0185 92.4384L127.658 139.783V193.748L80.4333 219.488L0.609366 171.309V206.448L80.4333 256Z" fill="#FBFBFB"/>
</svg>

<svg xmlns="http://www.w3.org/2000/svg" fill="none" viewBox="0 0 158 256"><path fill="#FBFBFB" d="M78.07 0 .575 43.676v92.015l77.493 45.745 30.415-17.874-77.64-47.345V62.252l47.225-25.74 79.824 48.18v-35.14z"/><path fill="#FBFBFB" d="m80.433 256 77.493-43.676v-92.015L80.433 74.564 50.018 92.438l77.64 47.345v53.965l-47.225 25.74L.61 171.309v35.139z"/></svg>
